icons/select-single-16.svg

<svg width="16" height="16" viewBox="0 0 16 16" fill="none" xmlns="http://www.w3.org/2000/svg">
<path d="M13.25 1.75H2.75C2.19772 1.75 1.75 2.19772 1.75 2.75V13.25C1.75 13.8023 2.19772 14.25 2.75 14.25H13.25C13.8023 14.25 14.25 13.8023 14.25 13.25V2.75C14.25 2.19772 13.8023 1.75 13.25 1.75Z" stroke="#24292E" stroke-width="1.5"/>
<path d="M5.06065 7.35107L7.85461 10.145C7.93493 10.2253 8.06514 10.2253 8.14545 10.145L10.9393 7.35107C11.0689 7.22151 10.9772 7 10.7939 7H5.20607C5.02285 7 4.93109 7.22152 5.06065 7.35107Z" fill="#24292E"/>
</svg>

<svg xmlns="http://www.w3.org/2000/svg" width="16" height="16" viewBox="0 0 16 16"><path stroke="#24292E" stroke-width="1.5" d="M13.25 1.75H2.75a1 1 0 00-1 1v10.5a1 1 0 001 1h10.5a1 1 0 001-1V2.75a1 1 0 00-1-1z"/><path d="M5.06 7.351l2.795 2.794c.08.08.21.08.29 0l2.794-2.794A.206.206 0 0010.794 7H5.206a.206.206 0 00-.145.351z"/></svg>
